src/icons/title.svg

<svg xmlns="http://www.w3.org/2000/svg" width="1294" height="202" fill="none"><path fill="#D5DEEB" d="M213.276 52.136 167.448 199h-25.192L106.88 82.42 71.504 199H46.312L.216 52.136H25.14l33.768 123.28 36.448-123.28h24.924l35.644 123.548 33.232-123.548h24.12Zm15.092 72.896c0-15.008 3.037-28.14 9.112-39.396 6.074-11.435 14.382-20.279 24.924-26.532 10.72-6.253 22.601-9.38 35.644-9.38 12.864 0 24.03 2.77 33.5 8.308 9.469 5.539 16.526 12.507 21.172 20.904v-26.8h24.656V199H352.72v-27.336c-4.824 8.576-12.06 15.723-21.708 21.44-9.47 5.539-20.547 8.308-33.232 8.308-13.043 0-24.835-3.216-35.376-9.648-10.542-6.432-18.85-15.455-24.924-27.068-6.075-11.613-9.112-24.835-9.112-39.664Zm124.352.268c0-11.077-2.234-20.725-6.7-28.944-4.467-8.219-10.542-14.472-18.224-18.76-7.504-4.467-15.812-6.7-24.924-6.7s-17.42 2.144-24.924 6.432c-7.504 4.288-13.49 10.541-17.956 18.76-4.467 8.219-6.7 17.867-6.7 28.944 0 11.256 2.233 21.083 6.7 29.48 4.466 8.219 10.452 14.561 17.956 19.028 7.504 4.288 15.812 6.432 24.924 6.432s17.42-2.144 24.924-6.432c7.682-4.467 13.757-10.809 18.224-19.028 4.466-8.397 6.7-18.135 6.7-29.212m120.541 51.188 45.56-124.352h25.996L487.197 199h-28.408l-57.62-146.864h26.264zm229.555-56.548c0 4.645-.268 9.559-.804 14.74H584.628c.893 14.472 5.806 25.817 14.74 34.036 9.112 8.04 20.1 12.06 32.964 12.06 10.541 0 19.296-2.412 26.264-7.236 7.146-5.003 12.149-11.613 15.008-19.832h26.264c-3.931 14.115-11.792 25.639-23.584 34.572-11.792 8.755-26.443 13.132-43.952 13.132-13.936 0-26.443-3.127-37.52-9.38-10.899-6.253-19.475-15.097-25.728-26.532-6.254-11.613-9.38-25.013-9.38-40.2 0-15.187 3.037-28.497 9.112-39.932 6.074-11.435 14.561-20.19 25.46-26.264 11.077-6.253 23.762-9.38 38.056-9.38 13.936 0 26.264 3.037 36.984 9.112 10.72 6.075 18.938 14.472 24.656 25.192 5.896 10.541 8.844 22.512 8.844 35.912m-25.192-5.092c0-9.291-2.055-17.241-6.164-23.852-4.11-6.79-9.738-11.881-16.884-15.276-6.968-3.573-14.74-5.36-23.316-5.36-12.328 0-22.87 3.93-31.624 11.792-8.576 7.861-13.49 18.76-14.74 32.696zM759.395.68V199h-24.388V.68h24.388m32.453 124.352c0-15.008 3.038-28.14 9.112-39.396 6.075-11.435 14.383-20.279 24.924-26.532 10.72-6.253 22.602-9.38 35.644-9.38 12.864 0 24.031 2.77 33.5 8.308 9.47 5.539 16.527 12.507 21.172 20.904v-26.8h24.656V199H916.2v-27.336c-4.824 8.576-12.06 15.723-21.708 21.44-9.469 5.539-20.546 8.308-33.232 8.308-13.042 0-24.834-3.216-35.376-9.648-10.541-6.432-18.849-15.455-24.924-27.068-6.074-11.613-9.112-24.835-9.112-39.664m124.352.268c0-11.077-2.233-20.725-6.7-28.944-4.466-8.219-10.541-14.472-18.224-18.76-7.504-4.467-15.812-6.7-24.924-6.7s-17.42 2.144-24.924 6.432c-7.504 4.288-13.489 10.541-17.956 18.76-4.466 8.219-6.7 17.867-6.7 28.944 0 11.256 2.234 21.083 6.7 29.48 4.467 8.219 10.452 14.561 17.956 19.028 7.504 4.288 15.812 6.432 24.924 6.432s17.42-2.144 24.924-6.432c7.683-4.467 13.758-10.809 18.224-19.028 4.467-8.397 6.7-18.135 6.7-29.212m137.43-75.844c17.86 0 32.33 5.45 43.41 16.348 11.08 10.72 16.62 26.264 16.62 46.632V199h-24.12v-83.08c0-14.651-3.67-25.817-10.99-33.5-7.33-7.861-17.33-11.792-30.02-11.792-12.86 0-23.13 4.02-30.82 12.06-7.5 8.04-11.25 19.743-11.25 35.108V199h-24.39V52.136h24.39V73.04c4.82-7.504 11.34-13.31 19.56-17.42 8.4-4.11 17.6-6.164 27.61-6.164m90.75 75.576c0-15.008 3.04-28.14 9.12-39.396 6.07-11.435 14.38-20.279 24.92-26.532 10.72-6.253 22.69-9.38 35.91-9.38 11.44 0 22.07 2.68 31.89 8.04 9.83 5.181 17.33 12.06 22.52 20.636V.68h24.65V199h-24.65v-27.604c-4.83 8.755-11.98 15.991-21.44 21.708-9.47 5.539-20.55 8.308-33.24 8.308-13.04 0-24.92-3.216-35.64-9.648-10.54-6.432-18.85-15.455-24.92-27.068-6.08-11.613-9.12-24.835-9.12-39.664m124.36.268c0-11.077-2.24-20.725-6.7-28.944-4.47-8.219-10.55-14.472-18.23-18.76-7.5-4.467-15.81-6.7-24.92-6.7-9.11 0-17.42 2.144-24.93 6.432-7.5 4.288-13.49 10.541-17.95 18.76-4.47 8.219-6.7 17.867-6.7 28.944 0 11.256 2.23 21.083 6.7 29.48 4.46 8.219 10.45 14.561 17.95 19.028 7.51 4.288 15.82 6.432 24.93 6.432s17.42-2.144 24.92-6.432c7.68-4.467 13.76-10.809 18.23-19.028 4.46-8.397 6.7-18.135 6.7-29.212"/></svg>

<svg width="1294" height="202" viewBox="0 0 1294 202" fill="none" xmlns="http://www.w3.org/2000/svg">
<path d="M213.276 52.136L167.448 199H142.256L106.88 82.42L71.504 199H46.312L0.216 52.136H25.14L58.908 175.416L95.356 52.136H120.28L155.924 175.684L189.156 52.136H213.276ZM228.368 125.032C228.368 110.024 231.405 96.892 237.48 85.636C243.554 74.2013 251.862 65.3573 262.404 59.104C273.124 52.8507 285.005 49.724 298.048 49.724C310.912 49.724 322.078 52.4933 331.548 58.032C341.017 63.5707 348.074 70.5387 352.72 78.936V52.136H377.376V199H352.72V171.664C347.896 180.24 340.66 187.387 331.012 193.104C321.542 198.643 310.465 201.412 297.78 201.412C284.737 201.412 272.945 198.196 262.404 191.764C251.862 185.332 243.554 176.309 237.48 164.696C231.405 153.083 228.368 139.861 228.368 125.032ZM352.72 125.3C352.72 114.223 350.486 104.575 346.02 96.356C341.553 88.1373 335.478 81.884 327.796 77.596C320.292 73.1293 311.984 70.896 302.872 70.896C293.76 70.896 285.452 73.04 277.948 77.328C270.444 81.616 264.458 87.8693 259.992 96.088C255.525 104.307 253.292 113.955 253.292 125.032C253.292 136.288 255.525 146.115 259.992 154.512C264.458 162.731 270.444 169.073 277.948 173.54C285.452 177.828 293.76 179.972 302.872 179.972C311.984 179.972 320.292 177.828 327.796 173.54C335.478 169.073 341.553 162.731 346.02 154.512C350.486 146.115 352.72 136.377 352.72 125.3ZM473.261 176.488L518.821 52.136H544.817L487.197 199H458.789L401.169 52.136H427.433L473.261 176.488ZM702.816 119.94C702.816 124.585 702.548 129.499 702.012 134.68H584.628C585.521 149.152 590.434 160.497 599.368 168.716C608.48 176.756 619.468 180.776 632.332 180.776C642.873 180.776 651.628 178.364 658.596 173.54C665.742 168.537 670.745 161.927 673.604 153.708H699.868C695.937 167.823 688.076 179.347 676.284 188.28C664.492 197.035 649.841 201.412 632.332 201.412C618.396 201.412 605.889 198.285 594.812 192.032C583.913 185.779 575.337 176.935 569.084 165.5C562.83 153.887 559.704 140.487 559.704 125.3C559.704 110.113 562.741 96.8027 568.816 85.368C574.89 73.9333 583.377 65.1787 594.276 59.104C605.353 52.8507 618.038 49.724 632.332 49.724C646.268 49.724 658.596 52.7613 669.316 58.836C680.036 64.9107 688.254 73.308 693.972 84.028C699.868 94.5693 702.816 106.54 702.816 119.94ZM677.624 114.848C677.624 105.557 675.569 97.6067 671.46 90.996C667.35 84.2067 661.722 79.1147 654.576 75.72C647.608 72.1467 639.836 70.36 631.26 70.36C618.932 70.36 608.39 74.2907 599.636 82.152C591.06 90.0133 586.146 100.912 584.896 114.848H677.624ZM759.395 0.679997V199H735.007V0.679997H759.395ZM791.848 125.032C791.848 110.024 794.886 96.892 800.96 85.636C807.035 74.2013 815.343 65.3573 825.884 59.104C836.604 52.8507 848.486 49.724 861.528 49.724C874.392 49.724 885.559 52.4933 895.028 58.032C904.498 63.5707 911.555 70.5387 916.2 78.936V52.136H940.856V199H916.2V171.664C911.376 180.24 904.14 187.387 894.492 193.104C885.023 198.643 873.946 201.412 861.26 201.412C848.218 201.412 836.426 198.196 825.884 191.764C815.343 185.332 807.035 176.309 800.96 164.696C794.886 153.083 791.848 139.861 791.848 125.032ZM916.2 125.3C916.2 114.223 913.967 104.575 909.5 96.356C905.034 88.1373 898.959 81.884 891.276 77.596C883.772 73.1293 875.464 70.896 866.352 70.896C857.24 70.896 848.932 73.04 841.428 77.328C833.924 81.616 827.939 87.8693 823.472 96.088C819.006 104.307 816.772 113.955 816.772 125.032C816.772 136.288 819.006 146.115 823.472 154.512C827.939 162.731 833.924 169.073 841.428 173.54C848.932 177.828 857.24 179.972 866.352 179.972C875.464 179.972 883.772 177.828 891.276 173.54C898.959 169.073 905.034 162.731 909.5 154.512C913.967 146.115 916.2 136.377 916.2 125.3ZM1053.63 49.456C1071.49 49.456 1085.96 54.9053 1097.04 65.804C1108.12 76.524 1113.66 92.068 1113.66 112.436V199H1089.54V115.92C1089.54 101.269 1085.87 90.1027 1078.55 82.42C1071.22 74.5587 1061.22 70.628 1048.53 70.628C1035.67 70.628 1025.4 74.648 1017.71 82.688C1010.21 90.728 1006.46 102.431 1006.46 117.796V199H982.07V52.136H1006.46V73.04C1011.28 65.536 1017.8 59.7293 1026.02 55.62C1034.42 51.5107 1043.62 49.456 1053.63 49.456ZM1144.38 125.032C1144.38 110.024 1147.42 96.892 1153.5 85.636C1159.57 74.2013 1167.88 65.3573 1178.42 59.104C1189.14 52.8507 1201.11 49.724 1214.33 49.724C1225.77 49.724 1236.4 52.404 1246.22 57.764C1256.05 62.9453 1263.55 69.824 1268.74 78.4V0.679997H1293.39V199H1268.74V171.396C1263.91 180.151 1256.76 187.387 1247.3 193.104C1237.83 198.643 1226.75 201.412 1214.06 201.412C1201.02 201.412 1189.14 198.196 1178.42 191.764C1167.88 185.332 1159.57 176.309 1153.5 164.696C1147.42 153.083 1144.38 139.861 1144.38 125.032ZM1268.74 125.3C1268.74 114.223 1266.5 104.575 1262.04 96.356C1257.57 88.1373 1251.49 81.884 1243.81 77.596C1236.31 73.1293 1228 70.896 1218.89 70.896C1209.78 70.896 1201.47 73.04 1193.96 77.328C1186.46 81.616 1180.47 87.8693 1176.01 96.088C1171.54 104.307 1169.31 113.955 1169.31 125.032C1169.31 136.288 1171.54 146.115 1176.01 154.512C1180.47 162.731 1186.46 169.073 1193.96 173.54C1201.47 177.828 1209.78 179.972 1218.89 179.972C1228 179.972 1236.31 177.828 1243.81 173.54C1251.49 169.073 1257.57 162.731 1262.04 154.512C1266.5 146.115 1268.74 136.377 1268.74 125.3Z" fill="#D5DEEB"/>
</svg>
